!!!COM: Palestrina, Giovanni Perluigi da
!!!OPR: Missa Io mi son giovinetta (1570)
!!!OMD: Gloria
!!!OTL: Qui tollis
**kern	**kern	**kern	**kern
*Ibass	*Itenor	*Icalto	*Icant
!Bassus	!Tenor	!Altus	!Cantus
*clefF4	*clefGv2	*clefG2	*clefG2
*k[b-]	*k[b-]	*k[b-]	*k[b-]
*G:dor	*G:dor	*G:dor	*G:dor
*M4/2	*M4/2	*M4/2	*M4/2
=98	=98	=98	=98
0r	0r	1g	1r
.	.	1b-	1dd
=99	=99	=99	=99
0r	0r	2b-	1ff
.	.	2b-	.
.	.	2a	2ff
.	.	2f	2ff
=100	=100	=100	=100
0r	0r	1a	2ee
.	.	.	2cc
.	.	1g	1ee
=101	=101	=101	=101
0r	0r	2r	1dd
.	.	1g	.
.	.	.	2r
.	.	2g	[2dd
=102	=102	=102	=102
0r	0r	2f	2dd]
.	.	2d	2dd
.	.	2.f	2cc
.	.	.	2a
.	.	4g	.
=103	=103	=103	=103
0r	0r	4a	2.cc
.	.	4b-	.
.	.	1cc	.
.	.	.	4dd
.	.	.	4ee
.	.	.	4ff
.	.	4b-	[2gg
.	.	4a	.
=104	=104	=104	=104
1G	0r	2g	2gg]
.	.	1b-	4ff
.	.	.	4ee
1B-	.	.	2dd
.	.	4a	[2ff
.	.	4g	.
=105	=105	=105	=105
2B-	0r	2f	4ff]
.	.	.	4ee
2B-	.	2g	2dd
2A	.	2.a	2cc
2F	.	.	[2dd
.	.	4g	.
=106	=106	=106	=106
1A	1r	2e	4dd]
.	.	.	4cc
.	.	2f#	2cc
1G	1d	1g	1b-
=107	=107	=107	=107
2r	1f	1d	0a
1d	.	.	.
.	2f	2r	.
2d	2f	[2a	.
=108	=108	=108	=108
2c	2e	2a]	2r
2A	2c	2a	1cc
1c	1e	2g	.
.	.	2e	2cc
=109	=109	=109	=109
0G	1d	1g	2b-
.	.	.	2g
.	2r	2.d	2.b-
.	[2d	.	.
.	.	4e	4cc
=110	=110	=110	=110
0r	2d]	4f	4dd
.	.	4g	4ee
.	2d	4a	4ff
.	.	4f	4dd
.	2c	2g	2ee
.	2A	[2a	[2ff
=111	=111	=111	=111
0r	1c	4a]	4ff]
.	.	4g	4ee
.	.	2e	2.ee
.	2B-	2f	.
.	.	.	4dd
.	2G	2g	[2dd
=112	=112	=112	=112
1r	1A	1e	2dd]
.	.	.	2cc
2r	1d	2f	2a
[2G	.	2g	[2b-
=113	=113	=113	=113
2G]	2r	2.d	2b-]
2G	1d	.	4a
.	.	4e	4g
2F	.	[1f	2a
2D	2d	.	[2b-
=114	=114	=114	=114
1F	2c	2f]	4b-]
.	.	.	4a
.	2A	2c	2.a
2E-	2B-	1e-	.
.	.	.	4g
2C	2c	.	[2g
=115	=115	=115	=115
0D	0A	0d	2g]
.	.	.	4f
.	.	.	4e
.	.	.	1f#
=116	=116	=116	=116
0G	0G	2r	1g
.	.	2g	.
.	.	1b-	2r
.	.	.	2dd
=117	=117	=117	=117
0r	0r	2b-	1ff
.	.	2b-	.
.	.	2a	2ff
.	.	2f	2ff
=118	=118	=118	=118
0r	1r	1a	2ee
.	.	.	2cc
.	1c	2g	1ee
.	.	[2cc	.
=119	=119	=119	=119
1r	1g	2cc]	[0dd
.	.	4b-	.
.	.	4a	.
1G	2g	1b-	.
.	2g	.	.
=120	=120	=120	=120
1d	2f	0a	0dd]
.	4d	.	.
.	4e	.	.
2d	4f	.	.
.	4g	.	.
2d	4a	.	.
.	4f	.	.
=121	=121	=121	=121
2c	2g	1r	1r
2A	1a	.	.
1B-	.	1d	1dd
.	2g	.	.
=122	=122	=122	=122
1A	1a	2e	2cc
.	.	2f	2a
1r	1r	[1g	1b-
=123	=123	=123	=123
1r	1.d	2g]	2.a
.	.	4f	.
.	.	4e	4g
2r	.	2f	2a
[2G	2d	2g	2b-
=124	=124	=124	=124
2G]	1d	2.b-	1g
2G	.	.	.
.	.	4a	.
1G	1e	2.g	1r
.	.	4f	.
=125	=125	=125	=125
1A	1c	1e	0r
1F	[1f	1r	.
=126	=126	=126	=126
1.B-	2f]	0r	0r
.	2e	.	.
.	2d	.	.
2A	2c	.	.
=127	=127	=127	=127
2G	2B-	1r	1.dd
2F	2A	.	.
[1G	2B-	[1g	.
.	4G	.	2dd
.	4A	.	.
=128	=128	=128	=128
1G]	4B-	2g]	1dd
.	4c	.	.
.	4d	2g	.
.	4B-	.	.
2C	1c	1g	1ee
[2c	.	.	.
=129	=129	=129	=129
2c]	2F	1a	1cc
2F	1f	.	.
2A	.	1f	[1ff
2B-	2B-	.	.
=130	=130	=130	=130
1G	2d	1.b-	2ff]
.	2e	.	2ee
1F	2.f	.	2dd
.	.	2a	2cc
.	4e	.	.
=131	=131	=131	=131
1G	4d	2g	1b-
.	4c	.	.
.	1d	2f	.
1A	.	1e	2a
.	2c#	.	2ee
=132	=132	=132	=132
1D	1d	2d	1ff
.	.	2a	.
1r	1r	1b-	2dd
.	.	.	2ff
=133	=133	=133	=133
0r	0r	2g	2ee
.	.	2b-	2dd
.	.	2a	2cc
.	.	2g	[2dd
=134	=134	=134	=134
1r	0r	2f	4dd]
.	.	.	4cc
.	.	2.g	4b-
.	.	.	4a
2r	.	.	2b-
.	.	4f	.
[2A	.	4e	[2cc
.	.	4d	.
=135	=135	=135	=135
2A]	0r	2e	4cc]
.	.	.	4b-
2A	.	4c	2a
.	.	4d	.
2c	.	4e	2g
.	.	4c	.
2A	.	[2f	2f
=136	=136	=136	=136
2B-	1r	2f]	1g
2c	.	2e	.
1d	2r	[1f	1f
.	[2d	.	.
=137	=137	=137	=137
0D	2d]	1f]	2r
.	2d	.	1a
.	2f	1d	.
.	2d	.	2a
=138	=138	=138	=138
1A	2e	1c	2cc
.	2f	.	2a
2G	2g	2d	2b-
2F	[2a	[2f	2cc
=139	=139	=139	=139
1B-	2a]	2f]	1.dd
.	2g	4e	.
.	.	4d	.
2.A	1a	2f	.
.	.	[2e	2cc
4G	.	.	.
=140	=140	=140	=140
2F	2r	4e]	2a
.	.	4d	.
2G	1g	1d	2b-
1E	.	.	1g
.	2g	2c#	.
=141	=141	=141	=141
1D	2f	1d	2r
.	2d	.	1dd
1r	2f	1r	.
.	2g	.	2dd
=142	=142	=142	=142
1r	2e	0r	2cc
.	2.f	.	2a
2r	.	.	2cc
.	4e	.	.
[2G	4d	.	2dd
.	4c	.	.
=143	=143	=143	=143
2G]	2d	0r	1b-
2G	4B-	.	.
.	4c	.	.
2F	4d	.	1a
.	4e	.	.
2D	[2f	.	.
=144	=144	=144	=144
2F	4f]	2r	1dd
.	4e	.	.
2G	1d	1g	.
1E	.	.	2ee
.	2c#	2g	2ee
=145	=145	=145	=145
1D	1.d	2f	4ff
.	.	.	4dd
.	.	2d	2.ff
1r	.	2f	.
.	.	.	4ee
.	2G	2g	[2dd
=146	=146	=146	=146
2r	2A	1e	2dd]
2A	2a	.	2cc#
2B-	2g	1d	1dd
2d	2f	.	.
=147	=147	=147	=147
2d	2e	1A	1r
2c#	2e	.	.
1d	1d	2r	1a
.	.	2a	.
=148	=148	=148	=148
1r	0r	2g	2b-
.	.	2f	2dd
1A	.	2e	2dd
.	.	2e	2cc#
=149	=149	=149	=149
1B-	2r	1d	1dd
.	2d	.	.
2A	1f	1r	1r
2d	.	.	.
=150	=150	=150	=150
2d	2e	0r	1r
2c	2g	.	.
1d	2g	.	1a
.	2f#	.	.
=151	=151	=151	=151
1G	1g	2r	1b-
.	.	2d	.
1r	1d	1f	2a
.	.	.	2dd
=152	=152	=152	=152
1A	1r	2e	2dd
.	.	2a	2cc#
1B-	1d	2a	1dd
.	.	2g	.
=153	=153	=153	=153
1A	2.e	1a	2.cc
.	4f	.	4dd
2G	2g	2b-	2ee
2F	2a	[2cc	2ff
=154	=154	=154	=154
1G	1g	2cc]	2ee
.	.	2b-	1dd
[1A	2f	[1a	.
.	4e	.	4cc
.	4d	.	4b
=155	=155	=155	=155
1A]	1e	1a]	1cc#
[1D	[1d	1f#	1dd
=156	=156	=156	=156
1D]	1d]	2r	2r
.	.	2d	2dd
1r	1r	2e	2cc
.	.	2f	2dd
=157	=157	=157	=157
0r	0r	2g	2b-
.	.	2e	2cc
.	.	2f	2a
.	.	4d	4dd
.	.	4e	4cc
=158	=158	=158	=158
0r	1d	4f	4dd
.	.	4g	4ee
.	.	4a	4ff
.	.	4b-	4dd
.	2c	2cc	2ee
.	2d	2a	[2ff
=159	=159	=159	=159
1r	2B-	1g	2ff]
.	2c	.	2ee
2r	2A	2.f	1ff
2d	2B-	.	.
.	.	4g	.
=160	=160	=160	=160
2c	2F	1a	0r
2d	1f	.	.
2B-	.	1g	.
2c	2e	.	.
=161	=161	=161	=161
2F	2f	1a	2r
2D	2f	.	2a
2.G	2d	2r	2.b-
.	2B-	2d	.
4G	.	.	4b-
=162	=162	=162	=162
2F	2c	2.f	2a
2BB-	2f	.	2dd
.	.	4e	.
2.BB-	2.f	2d	2.dd
.	.	2b-	.
4BB-	4f	.	4dd
=163	=163	=163	=163
2F	2f	2a	2cc
2G	2d	2g	2b-
1D	1d	2.f	2a
.	.	.	4a
.	.	4g	4b-
=164	=164	=164	=164
0r	2r	4a	4cc
.	.	4f	4a
.	2B-	2b-	2dd
.	2c	2a	4cc
.	.	.	4b-
.	2e-	[2g	4a
.	.	.	4g
=165	=165	=165	=165
2r	1d	2g]	1a
2D	.	2f#	.
2.G	1d	2g	1g
.	.	2d	.
4G	.	.	.
=166	=166	=166	=166
2F	2r	1.f	2r
2BB-	2d	.	2b-
2.BB-	2.d	.	2.b-
.	.	2f	.
4BB-	4d	.	4b-
=167	=167	=167	=167
2F	2c	2f	2a
2G	2B-	2d	2g
[1D	1A	1d	2f
.	.	.	4f
.	.	.	4g
=168	=168	=168	=168
2D]	1d	1f	4a
.	.	.	4f
2BB-	.	.	2b-
2C	4c	2e-	4a
.	4B-	.	4g
2E-	4A	2c	[2g
.	4G	.	.
=169	=169	=169	=169
1D	1A	1d	2g]
.	.	.	2f#
2G	2G	2r	[1g
2C	2c	2e-	.
=170	=170	=170	=170
2.C	2.c	2.e-	0g_
4C	4c	4e-	.
2G	2B-	2d	.
2C	2e-	2c	.
=171	=171	=171	=171
1G	1d	2B-	0g_
.	.	4B-	.
.	.	4c	.
2.G	2.B-	4d	.
.	.	4B-	.
.	.	2e-	.
4A	4c	.	.
=172	=172	=172	=172
2B-	4d	2d	1g]
.	4B-	.	.
2c	2e-	1c	.
1G	1d	.	[1g
.	.	2B-	.
=173	=173	=173	=173
1C	1c	1e-	1g_
[1G	[1B	[1d	1g_
=174	=174	=174	=174
1G]	1B]	1d]	1g]
==	==	==	==
*-	*-	*-	*-
!!!CDT: 1525/^1526/-1594/2/2
!!!OCY: Italia
!!!AGN: Mass (Parody)
!!!AST: renaissance, vocal
!!!ASW: Madrigal 1542 (Ferabosco)
!!!PWK: Masses, Book 3
!!!RNB: Cadence finals: A
!!!YOR: Le Opere Complete, v. 6, p. 30
!!!YOO: Rome, Italy: Fratelli Scalera
!!!END: 1992//
!!!EED: John Miller
!!!YEC: Copyright 2000, John Miller
!!!YEN: United States of America
!!!YEM: Rights to all derivative electronic formats reserved.
!!!YEM: Refer to licensing agreement for further details.
!!!YEM: This file must be accompanied by the licensing agreement.
!!!YEM: A copy of the licensing agreement may be found at http://www.music-cog.ohio-state.edu/HumdrumDatabases/Palestrina/license.txt
!!!EMD: converted to Humdrum by Bret Aarden
